X:9
T:Miss Earlâ€™s Minuet. JBi.09
M:3/4
L:1/8
Q:1/4=120
S:James Biggins MS, Leeds, 1779.
R:.Minuet
O:England
A:Yorkshire
Z:vmp.Nick Barber & Chris Partington
K:D
â€œ_no key/time sig. in msâ€
(A/B/c)|dAFAFA|â€^f in msâ€d2f2a2|ecA2G2|{F}G4A2|!
B2G2G2|((3FAF) D2D2|B2G2G2|((3FAF) D2d2|fed2c2|d4:|!
|:â€^s.quâ€™sâ€(fg)|afdfba|a2g2f2|bfe2d2|{d}c4Bc|!
dAFD df|ecAceg|dagfed|{d}c4Bc|!
dAFAFA|d2f2a2|ecA2G2|{G}F4A2|B2G2G2|!
((3FAF) D2D2|B2G2G2|((3FAF) D2d2|f/e/fd2c2|d6:|

